X:1
T:Hymn 328
T:Hymn 328
T:Thy Strong Word
%%score 1 2 3 4
L:1/8
M:4/2
K:G
V:1 treble transpose=-2 nm="B♭ Trumpet" snm="B♭ Tpt."
V:2 treble transpose=-2 nm="B♭ Trumpet" snm="B♭ Tpt."
V:3 bass nm="Euphonium" snm="Euph."
V:4 bass nm="Tuba" snm="Tba."
V:1
[K:A]!mp! F4!<(! (3F2 G2 A2 G4 F4 | G4 (3G2 A2 B2!<)!!>(! (A3 G) F4!>)! | c4 (3B2 c2 d2 (c3 B) A4 | %3
 (B3 A) G4!<(! F8!<)! ||!mf! F4 (3F2 G2 A2 G4 F4 | G4 (3G2 A2 B2 (A3 G) F4 | %6
 c4 (3B2 c2 d2 (c3 B) A4 | (B3 A) G4!>(! F8!>)! || c4 (3A2 B2 c2 B4 B4 | A4 (3F2 G2 A2 G4 G4 | %10
 F4 (3F2 G2 A2 G4 G4 | A4 (3B2 A2 B2 c8 ||!mp! F4!<(! (3F2 G2 A2 G4 F4 | %13
 G4 (3G2 A2 B2!<)! (A3 G) F4 | c4 (3B2 c2 d2 (c3 B) A4 | (B3 A) G4 F8 |] %16
V:2
[K:A]!mp! C4!<(! C4 ^E4 F4 | F4 ^E4!<)!!>(! F4 C4!>)! | C4 E4 G4 F4 | F4 ^E4!<(! F8!<)! || %4
!mf! C4 C4 ^E4 F4 | F4 ^E4 F4 C4 | C4 E4 G4 F4 | F4 ^E4!>(! F8!>)! || E4 E4 E4 E4 | C4 F4 F4 ^E4 | %10
 F4 C4 F4 E4 | C4 F4 ^E8 ||!mp! A,4!<(! F4 ^E4 F4 | F4 ^E4!<)! F4 F4 | E4 E4 E4 F4 | F4 ^E4 F8 |] %16
V:3
!mp! G,4!<(! B,4 B,4 G,4 | C4 B,4!<)!!>(! (B,3 A,) G,4!>)! | D4 (3:2:2A,4 G,2 B,4 B,4 | %3
 (C3 B,) A,4!<(! G,8!<)! ||!mf! G,4 B,4 B,4 G,4 | C4 B,4 (B,3 A,) G,4 | D4 (3:2:2A,4 G,2 B,4 B,4 | %7
 (C3 B,) A,4!>(! G,8!>)! || G,4 G,4 G,4 F,4 | G,4 B,4 B,4 B,4 | E,4 G,4 G,4 F,4 | G,4 E,4 F,8 || %12
!mp! E,4!<(! B,4 B,4 G,4 | C4 B,4!<)! (B,3 A,) G,4 | G,4 (3F,2 G,2 A,2 G,3 F, E,4 | %15
 (C3 B,) A,4 G,8 |] %16
V:4
!mp! E,,4!<(! G,,4 B,,4 C,4 | A,,4 B,,4!<)!!>(! E,4 E,4!>)! | G,4 (3:2:2F,4 E,2 ^D,4 E,4 | %3
 A,,4 B,,4!<(! E,8!<)! ||!mf! E,,4 G,,4 B,,4 C,4 | A,,4 B,,4 E,4 E,4 | G,4 (3:2:2F,4 E,2 ^D,4 E,4 | %7
 A,,4 B,,4!>(! E,8!>)! || G,,4 B,,4 D,4 D,4 | E,4 G,,4 B,,4 B,,4 | E,4 D,4 C,4 D,4 | %11
 E,2 D,2 C,4 B,,8 ||!mp! C,4!<(! G,,4 B,,4 C,4 | A,,4 B,,4!<)! E,4 E,4 | G,4 D,4 G,,4 C,4 | %15
 A,,4 B,,4 E,8 |] %16

